X: 9788
T: Denis Doody's
R: polka
M: 2/4
K: Eminor
|:GE ED|B,E E>G|FD DE|FG AB/A/|
GE ED|B,E E>F|GA B>A|GF E2:|
|:Be e/f/e/d/|Be e/f/e/d/|Be e(f|f)g ef|
gb/g/ fg/f/|eB BA|BB E>F|GA B/d/B/A/:|

